X: 1
T: Marquis Of Granby's March, The
M: 4/4
L: 1/8
R: barndance
K: Dmaj
|: A | d3A d3A | d>cd>e f>e d2 | f>ef>g  a2 g>f |1 e>de>f e3 :|2 e>de>f e4 ||
|: e>de>f e>c A2 | e>de>f ~g4 | f>ef>g  a2 g>f | ~e3 d d4 :|
